X: 1
T: Folketone fra Sunnm\ore   (Dm)
C: trad. Norway
R: waltz
S: archive.folx.org
Z: 2018 John Chambers <jc:trillian.mit.edu>
M: 3/4
L: 1/4
K: Dm
A |\
"Dm"d>ef | "A"e>d^c | "Bb"d>cB | "F"A2G |\
"Dm"F>ED | "Dm"DF"C"G | "F"A3- | "A"Az ||
A |\
"Dm"d>ef | "A"e>d^c | "Bb"d>cB | "F"A2G |\
"Dm"F>ED | "A¶"DFE | "Dm"D3- | Dz |]
A |\
"Dm"d^cd | "A"e^cA | "Dm"f>ef | "Gm"gab |\
"Dm"a>gf | fed | "A"e3- | ez ||
A |\
"Dm"d>ef | "A"e>d^c | "Bb"d>cB | "F"A2G |\
"Dm"F>ED | "A¶"DFE | "Dm"D3- | Dz |]
